X:1
T:Title
%%score { ( 1 2 3 ) | ( 4 5 ) }
L:1/8
Q:1/4=92
M:4/4
K:G
V:1 treble nm="Grand Piano"
V:2 treble 
V:3 treble 
V:4 bass 
V:5 bass 
V:1
 B4 z2 E2[K:bass] | F4 z4 | A4 z4 | B6[K:bass] z2 | c4 z2 c2 | B4 z4 | ^c4 z2 [GA]2 |[M:3/4] A6 | %8
w: J.~Howard~Entwisle *||||||||
[M:1/4] DD |[M:4/4] d4 G2 F2 | [A,^DF]2 [G,E]4 z2 | z2 [A,E][Ed] [Ec]2 A2 |[M:3/4] F6 |[M:1/4] ED | %14
w: ||||||
[M:4/4] [DG]2 A2 B2 c2 | [_Be]4 [=Bd]2 [=Fd][Ec] | [DB]3 [Ec] [DB]2 [CA]2 | [B,G]6 z2 |] %18
w: ||||
V:2
 z2 B,D ^CD z[K:bass] z/ D/ | z2 .[A,C]2 D2 .[A,C]2 | z2 [A,C]A ^GAFD | z2 .B,2 z2[K:bass] B,D, | %4
 z2 Cc BB z z/ B/ | z2 .C2 A2 CE, | z GGB A[^CE] .C>B |[M:3/4] z F EE D2 |[M:1/4] x2 | %9
[M:4/4] z2 D[DB] [G,D][G,D][A,^D][A,D] | x8 | x8 |[M:3/4] z2 D2 D2 |[M:1/4] x2 |[M:4/4] x8 | x8 | %16
 x8 | x8 |] %18
V:3
 z4 z2 z[K:bass] D, | x8 | x8 | x6[K:bass] x2 | z4 z2 z E, | x8 | z4 z2 z ^C |[M:3/4] x6 | %8
[M:1/4] x2 |[M:4/4] x8 | x8 | x8 |[M:3/4] x6 |[M:1/4] x2 |[M:4/4] x8 | x8 | x8 | x8 |] %18
V:4
 G,,D,G,D, G,,D, .[G,B,]2 | D,,D,F,D, D,,D,F,D, | D,,D,F,D, D,,D,[F,A,C]D, | G,,D,G,D, G,,D, .G,2 | %4
 A,,E,A,E, E,,E, .[^G,D]2 | A,,E,A,E, A,,E, .A,2 | %6
 A,,[K:treble][A,^C][A,C][A,CG][K:bass] A,,A, .A,>G |[M:3/4] z A, G,G, F,2 |[M:1/4] z2 | %9
[M:4/4] z2 [B,,G,][B,,G,] B,,B,,B,,B,, | C,2 C,4[K:treble] EE | c4[K:bass] z4 | %12
[M:3/4] [D,A,]2 [D,A,]2 [D,A,]2 |[M:1/4] [D,G,D][D,F,] |[M:4/4] [B,,G,]2 [D,F,D]2 [G,D]2 [G,E]2 | %15
 [G,^C]4 [G,D]2 [B,,G,][C,G,] | [D,G,]3 [D,G,] [D,F,]2 [D,F,]2 | [G,,G,]6 z2 |] %18
V:5
 x8 | x8 | x8 | x8 | x8 | x8 | z4[K:treble][K:bass] z2 z A, |[M:3/4] D,6 |[M:1/4] x2 |[M:4/4] x8 | %10
 x6[K:treble] x2 | z2[K:bass] A,,[A,,A,] [A,,A,]2 [C,E,C]2 |[M:3/4] x6 |[M:1/4] x2 |[M:4/4] x8 | %15
 x8 | x8 | x8 |] %18

